Carto/POI/SVG/platform_solid_24px.svg

<svg width="24" height="24" viewBox="0 0 24 24" fill="none" xmlns="http://www.w3.org/2000/svg">
<path d="M22 18V20H4V22H2V18H10L9.57 14.18L7.64 13.54C7.64 13.54 7.99 10.11 8.17 8.26C8.2023 7.94353 8.35129 7.65043 8.58793 7.43783C8.82457 7.22522 9.13189 7.10836 9.45 7.11C10.2 7.11 10.56 7.75 11.5 7.75C12.44 7.75 12.8 7.11 13.55 7.11C13.8675 7.11059 14.1736 7.22822 14.4098 7.4404C14.6459 7.65258 14.7955 7.9444 14.83 8.26L15.36 13.54L13.43 14.18L13 18H22ZM11 6H12C12.2652 6 12.5196 5.89464 12.7071 5.70711C12.8946 5.51957 13 5.26522 13 5V3C13 2.73478 12.8946 2.48043 12.7071 2.29289C12.5196 2.10536 12.2652 2 12 2H11C10.7348 2 10.4804 2.10536 10.2929 2.29289C10.1054 2.48043 10 2.73478 10 3V5C10 5.26522 10.1054 5.51957 10.2929 5.70711C10.4804 5.89464 10.7348 6 11 6Z" fill="#0F1621"/>
</svg>

<svg xmlns="http://www.w3.org/2000/svg" width="24" height="24" viewBox="0 0 24 24"><rect width="24" height="24" style="fill:none"/><path d="M22,18v2H4v2H2V18h8l-.43-3.82-1.93-.64s.35-3.43.53-5.28A1.28,1.28,0,0,1,9.45,7.11c.75,0,1.11.64,2.05.64s1.3-.64,2.05-.64a1.29,1.29,0,0,1,1.28,1.15l.53,5.28-1.93.64L13,18ZM11,6h1a1,1,0,0,0,1-1V3a1,1,0,0,0-1-1H11a1,1,0,0,0-1,1V5A1,1,0,0,0,11,6Z"/></svg>
